X:1092
T:A Rosebud By My Early Walk
C:Joe Buchanan's Scottish Tome - Page 578.1
I:578 1
Z:Carl Allison
U:T=!tenuto!
R:Folk
L:1/4
M:3/4
K:C
F/D/ | (C2 D) | (E2 F) | (G2 c) | (c B G) | A> B c | (G F E) | D E C | (B, A, G,) |
(C2 D) | (E2 F) | (G2 c) | (c B G) | A>B c | (d c B) | c3- | c2 (c/d/) |
(Te2 Te) | (d c B) | (Tc2 Tc) | (c B G) | A>B c | (G F E) | (D E C) | B,2 G |
(Te2 Te) | (d c B) | c>d c | (c B G) | A>B c | (d c B) | c3 | C2 |]

